X: 31951
T: Pearl Of The White Breast, The
R: barndance
M: 4/4
K: Gmajor
(def|gf e>d g2 Ge|dB A>G A2) (Bc|d2 BG cB A>G|G6) (3def|
(gf e>d g2 Ge|dB A>G A2) (Bc|d2 BG cB A>G|G6) (dc|
Bd eg f3 f|gf e>d d3) (d|e>f gb a>g fd|d6) (3def|
(gf e>d g2 Ge|dB A>G A2) (Bc|d2 BG cB A>G|G6)||

